X: 235
T:Je bela cesta vglajena
S:Zbrala Dusica Kunaver, Slovenian Customs and Songs
M:3/4
L:1/4
Q:3/4=60
K:BbMix
G|B2 B|(B A) G|F2 B|A2
B|d2 d|(d c) A|G2 c|B2
G|B2 B|(B A) G|F2 B|A2
B|d2 d|(d c) A|G2 |]

=============================================================================
==  (c) Jack Campin         http://www.campin.me.uk/          August 2013  ==
==        11 Third Street, Newtongrange, Midlothian EH22 4PU, Scotland     ==
==                                                                         ==
==              these pages: http://tinyurl.com/scottishmodes              ==
=============================================================================

=============================================================================
=               Scales and Modes in Scottish Traditional Music              =
=                                  Jack Campin                              =
=============================================================================


Misleading Final Notes
======================

In most European art music, the final note of a tune is its tonal centre.
In many Scottish tunes, it isn't; this is very often the case with dance
tunes intended to be repeated indefinitely in a circular pattern, but it
often occurs with songs as well.  Probably the commonest type are those
ending on the third:

